X:13
T:La Belle Catherine. RHu.013
S:R.Hughes MS,1823,Whitchurch,Shrops.
A:Whitchurch, Shropshire
Z:Neil Brookes 2006
M:2/4
L:1/8
Q:1/2=70
R:Country Dance
K:D
A|d2f/e/d/e/|fd dc|B2e/f/e/d/|cAAA|d2f/e/d/e/|fddc|Be d/c/B/A/|d3::!
A/G/|FAAG|FAAG|FA d/f/e/d/|cAAG|F/G/A/B/ AG|\
FA AB/c/|d>e {g}fe/d/”D.C.”|”cr in MS”Ha3|]

